build/assets/images/svg/social/vk.svg

<svg width="24" height="24" viewBox="0 0 24 24" fill="none" xmlns="http://www.w3.org/2000/svg">
<path fill-rule="evenodd" clip-rule="evenodd" d="M0 12C0 18.6274 5.37258 24 12 24C18.6274 24 24 18.6274 24 12C24 5.37258 18.6274 0 12 0C5.37258 0 0 5.37258 0 12ZM12.8568 15.7992C12.7228 15.9384 12.4611 15.9666 12.4611 15.9666H11.5945C11.5945 15.9666 9.68247 16.0777 7.99813 14.3822C6.16132 12.5325 4.53939 8.86246 4.53939 8.86246C4.53939 8.86246 4.44577 8.62173 4.54719 8.50582C4.66137 8.37482 4.97271 8.36659 4.97271 8.36659L7.04427 8.35356C7.04427 8.35356 7.2393 8.38442 7.37901 8.48387C7.49461 8.56618 7.55914 8.71912 7.55914 8.71912C7.55914 8.71912 7.89388 9.53803 8.33713 10.2788C9.20306 11.7252 9.60588 12.0414 9.89949 11.8864C10.3278 11.6608 10.1995 9.84187 10.1995 9.84187C10.1995 9.84187 10.2073 9.18207 9.98388 8.88784C9.81084 8.66014 9.48461 8.59361 9.34064 8.57509C9.22362 8.56 9.41511 8.29801 9.66333 8.18072C10.0364 8.00446 10.6945 7.99417 11.4725 8.00172C12.0788 8.00789 12.2533 8.04424 12.4902 8.09979C13.0399 8.22809 13.0228 8.63925 12.9857 9.52661C12.9746 9.79199 12.9618 10.1 12.9618 10.4557C12.9618 10.5357 12.9594 10.6209 12.9569 10.7085C12.9441 11.1631 12.9293 11.6837 13.2391 11.8775C13.3979 11.9763 13.7859 11.8919 14.7568 10.298C15.217 9.54215 15.5617 8.65396 15.5617 8.65396C15.5617 8.65396 15.6376 8.49553 15.7546 8.42763C15.8745 8.35836 16.0362 8.37962 16.0362 8.37962L18.2162 8.36659C18.2162 8.36659 18.8715 8.29046 18.9772 8.57715C19.0885 8.87687 18.7325 9.57781 17.8418 10.7259C16.9975 11.8145 16.5863 12.2158 16.6233 12.5703C16.6504 12.8298 16.9177 13.0643 17.4311 13.5249C18.5019 14.4863 18.7889 14.9921 18.8578 15.1136C18.8636 15.1237 18.8678 15.1312 18.8708 15.136C19.3509 15.9062 18.3382 15.9666 18.3382 15.9666L16.4014 15.9926C16.4014 15.9926 15.9858 16.0722 15.4383 15.7087C15.1515 15.5184 14.8713 15.2077 14.6043 14.9117C14.1967 14.4597 13.8201 14.0422 13.4987 14.1408C12.959 14.3068 12.9753 15.4309 12.9753 15.4309C12.9753 15.4309 12.9795 15.6716 12.8568 15.7992Z" fill="white"/>
</svg>

<svg width="24" height="24" fill="none" xmlns="http://www.w3.org/2000/svg"><path fill-rule="evenodd" clip-rule="evenodd" d="M0 12c0 6.627 5.373 12 12 12s12-5.373 12-12S18.627 0 12 0 0 5.373 0 12zm12.857 3.8c-.134.138-.396.167-.396.167h-.867s-1.912.11-3.596-1.585c-1.837-1.85-3.459-5.52-3.459-5.52s-.093-.24.008-.356c.114-.131.426-.14.426-.14l2.071-.012s.195.03.335.13c.116.082.18.235.18.235s.335.819.778 1.56c.866 1.446 1.269 1.762 1.562 1.607.429-.225.3-2.044.3-2.044s.008-.66-.215-.954c-.173-.228-.5-.294-.643-.313-.117-.015.074-.277.322-.394.373-.177 1.031-.187 1.81-.18.606.007.78.043 1.017.099.55.128.533.54.496 1.427-.011.265-.024.573-.024.929 0 .08-.003.165-.005.253-.013.454-.028.975.282 1.168.159.1.547.015 1.518-1.579.46-.756.805-1.644.805-1.644s.076-.158.193-.226c.12-.07.281-.048.281-.048l2.18-.013s.655-.077.761.21c.111.3-.244 1-1.135 2.149-.845 1.088-1.256 1.49-1.219 1.844.027.26.295.494.808.955 1.07.961 1.358 1.467 1.427 1.589l.013.022c.48.77-.533.83-.533.83l-1.937.027s-.415.08-.963-.284c-.287-.19-.567-.501-.834-.797-.407-.452-.784-.87-1.105-.771-.54.166-.524 1.29-.524 1.29s.005.24-.118.368z" fill="#fff"/></svg>
